projects/vfh1/img/icons-service/Sun.svg

<svg viewBox="0 0 33 28" fill="none" xmlns="http://www.w3.org/2000/svg">
<g clip-path="url(#clip0_451_1425)">
<path d="M23.1406 14.5C23.1406 15.8134 22.7512 17.0973 22.0215 18.1893C21.2918 19.2814 20.2547 20.1325 19.0413 20.6351C17.8278 21.1378 16.4926 21.2693 15.2045 21.013C13.9163 20.7568 12.7331 20.1243 11.8044 19.1956C10.8757 18.2669 10.2432 17.0837 9.98697 15.7955C9.73074 14.5074 9.86225 13.1722 10.3649 11.9587C10.8675 10.7453 11.7186 9.7082 12.8107 8.97852C13.9027 8.24884 15.1866 7.85938 16.5 7.85938C18.2604 7.86196 19.948 8.56242 21.1928 9.80722C22.4376 11.052 23.138 12.7396 23.1406 14.5ZM16.5 6.29688C16.7072 6.29688 16.9059 6.21456 17.0524 6.06805C17.1989 5.92154 17.2812 5.72283 17.2812 5.51562V3.5625C17.2812 3.3553 17.1989 3.15659 17.0524 3.01007C16.9059 2.86356 16.7072 2.78125 16.5 2.78125C16.2928 2.78125 16.0941 2.86356 15.9476 3.01007C15.8011 3.15659 15.7188 3.3553 15.7188 3.5625V5.51562C15.7188 5.72283 15.8011 5.92154 15.9476 6.06805C16.0941 6.21456 16.2928 6.29688 16.5 6.29688ZM9.5957 8.69922C9.74339 8.84298 9.94136 8.92343 10.1475 8.92343C10.3536 8.92343 10.5515 8.84298 10.6992 8.69922C10.8453 8.55276 10.9274 8.35433 10.9274 8.14746C10.9274 7.94059 10.8453 7.74216 10.6992 7.5957L9.32227 6.20898C9.25222 6.12363 9.16508 6.0539 9.06645 6.00425C8.96783 5.95461 8.8599 5.92617 8.74962 5.92075C8.63934 5.91534 8.52914 5.93307 8.42613 5.97281C8.32311 6.01254 8.22956 6.07341 8.15148 6.15148C8.07341 6.22956 8.01254 6.32311 7.97281 6.42613C7.93307 6.52914 7.91534 6.63934 7.92075 6.74962C7.92617 6.8599 7.95461 6.96783 8.00425 7.06645C8.0539 7.16508 8.12363 7.25222 8.20898 7.32227L9.5957 8.69922ZM8.29688 14.5C8.29688 14.2928 8.21456 14.0941 8.06805 13.9476C7.92154 13.8011 7.72283 13.7188 7.51562 13.7188H5.5625C5.3553 13.7188 5.15659 13.8011 5.01007 13.9476C4.86356 14.0941 4.78125 14.2928 4.78125 14.5C4.78125 14.7072 4.86356 14.9059 5.01007 15.0524C5.15659 15.1989 5.3553 15.2812 5.5625 15.2812H7.51562C7.72283 15.2812 7.92154 15.1989 8.06805 15.0524C8.21456 14.9059 8.29688 14.7072 8.29688 14.5ZM9.5957 20.3008L8.20898 21.6777C8.06228 21.8259 7.97998 22.0259 7.97998 22.2344C7.97998 22.4429 8.06228 22.6429 8.20898 22.791C8.36002 22.9327 8.55856 23.0128 8.76562 23.0156C8.97308 23.0147 9.1723 22.9344 9.32227 22.791L10.6992 21.4043C10.8339 21.2557 10.9062 21.061 10.9013 20.8605C10.8964 20.66 10.8145 20.4691 10.6727 20.3273C10.5309 20.1855 10.34 20.1036 10.1395 20.0987C9.93902 20.0938 9.74432 20.1661 9.5957 20.3008ZM16.5 22.7031C16.2928 22.7031 16.0941 22.7854 15.9476 22.9319C15.8011 23.0785 15.7188 23.2772 15.7188 23.4844V25.4375C15.7188 25.6447 15.8011 25.8434 15.9476 25.9899C16.0941 26.1364 16.2928 26.2188 16.5 26.2188C16.7072 26.2188 16.9059 26.1364 17.0524 25.9899C17.1989 25.8434 17.2812 25.6447 17.2812 25.4375V23.4844C17.2812 23.2772 17.1989 23.0785 17.0524 22.9319C16.9059 22.7854 16.7072 22.7031 16.5 22.7031ZM23.4043 20.3008C23.2557 20.1661 23.061 20.0938 22.8605 20.0987C22.66 20.1036 22.4691 20.1855 22.3273 20.3273C22.1855 20.4691 22.1036 20.66 22.0987 20.8605C22.0938 21.061 22.1661 21.2557 22.3008 21.4043L23.6777 22.791C23.8277 22.9344 24.0269 23.0147 24.2344 23.0156C24.4414 23.0128 24.64 22.9327 24.791 22.791C24.9377 22.6429 25.02 22.4429 25.02 22.2344C25.02 22.0259 24.9377 21.8259 24.791 21.6777L23.4043 20.3008ZM27.4375 13.7188H25.4844C25.2772 13.7188 25.0785 13.8011 24.9319 13.9476C24.7854 14.0941 24.7031 14.2928 24.7031 14.5C24.7031 14.7072 24.7854 14.9059 24.9319 15.0524C25.0785 15.1989 25.2772 15.2812 25.4844 15.2812H27.4375C27.6447 15.2812 27.8434 15.1989 27.9899 15.0524C28.1364 14.9059 28.2188 14.7072 28.2188 14.5C28.2188 14.2928 28.1364 14.0941 27.9899 13.9476C27.8434 13.8011 27.6447 13.7188 27.4375 13.7188ZM22.8574 8.92383C22.9589 8.92472 23.0596 8.90532 23.1535 8.86674C23.2475 8.82817 23.3327 8.77121 23.4043 8.69922L24.791 7.32227C24.9156 7.17047 24.9793 6.97777 24.9696 6.78163C24.96 6.5855 24.8778 6.39996 24.7389 6.2611C24.6 6.12225 24.4145 6.04 24.2184 6.03037C24.0222 6.02074 23.8295 6.0844 23.6777 6.20898L22.3008 7.5957C22.1547 7.74216 22.0726 7.94059 22.0726 8.14746C22.0726 8.35433 22.1547 8.55276 22.3008 8.69922C22.3735 8.77241 22.4604 8.83005 22.556 8.86866C22.6517 8.90728 22.7543 8.92604 22.8574 8.92383Z" fill="#42474D"/>
</g>
<defs>
<clipPath id="clip0_451_1425">
<rect width="25" height="25" fill="white" transform="translate(4 2)"/>
</clipPath>
</defs>
</svg>

<svg viewBox="0 0 33 28" fill="none" xmlns="http://www.w3.org/2000/svg"><g clip-path="url(#clip0_451_1425)"><path d="M23.14 14.5a6.64 6.64 0 11-6.64-6.64 6.65 6.65 0 016.64 6.64zM16.5 6.297a.781.781 0 00.781-.781V3.562a.781.781 0 10-1.562 0v1.954a.781.781 0 00.781.78zM9.596 8.699a.791.791 0 001.103 0 .781.781 0 000-1.103L9.322 6.209A.791.791 0 108.21 7.322L9.596 8.7zm-1.3 5.801a.781.781 0 00-.78-.781H5.562a.781.781 0 100 1.562h1.954a.781.781 0 00.78-.781zm1.3 5.8l-1.387 1.378a.791.791 0 000 1.113.83.83 0 00.557.225.81.81 0 00.556-.225l1.377-1.387a.781.781 0 00-1.103-1.103zm6.904 2.403a.781.781 0 00-.781.781v1.953a.781.781 0 101.562 0v-1.953a.782.782 0 00-.781-.78zm6.904-2.402a.781.781 0 00-1.103 1.103l1.377 1.387a.81.81 0 00.556.225.83.83 0 00.557-.225.79.79 0 000-1.113L23.404 20.3zm4.034-6.582h-1.954a.782.782 0 000 1.562h1.953a.781.781 0 100-1.562zm-4.58-4.795a.762.762 0 00.546-.225l1.387-1.377a.79.79 0 00-1.113-1.113L22.3 7.596a.781.781 0 00.255 1.273.762.762 0 00.301.055z" fill="#42474D"/></g><defs><clipPath id="clip0_451_1425"><path fill="#fff" transform="translate(4 2)" d="M0 0h25v25H0z"/></clipPath></defs></svg>
